X:55
T: Így tedd rá, úgy tedd rá...
K: F
M: 2/4
L: 1/8
gdd2 | gabg | 
aff2 | fgag | 
fed2 | dgd2 | 
gcc2 | cd_ec | 
dBB2 | Bcdc | 
BAG2 | GcG2 | 

